assets/fullscreen-white-a2cdc832.svg

<!DOCTYPE svg PUBLIC "-//W3C//DTD SVG 1.1//EN" "http://www.w3.org/Graphics/SVG/1.1/DTD/svg11.dtd">
<!-- Uploaded to: SVG Repo, www.svgrepo.com, Transformed by: SVG Repo Mixer Tools -->
<svg width="800px" height="800px" viewBox="0 0 24 24" version="1.1" xmlns="http://www.w3.org/2000/svg" xmlns:xlink="http://www.w3.org/1999/xlink" fill="#ffffff">
<g id="SVGRepo_bgCarrier" stroke-width="0"/>
<g id="SVGRepo_tracerCarrier" stroke-linecap="round" stroke-linejoin="round"/>
<g id="SVGRepo_iconCarrier"> <title>fullscreen_2_line</title> <g id="页面-1" stroke="none" stroke-width="1" fill="none" fill-rule="evenodd"> <g id="Arrow" transform="translate(-624.000000, 0.000000)" fill-rule="nonzero"> <g id="fullscreen_2_line" transform="translate(624.000000, 0.000000)"> <path d="M24,0 L24,24 L0,24 L0,0 L24,0 Z M12.5934901,23.257841 L12.5819402,23.2595131 L12.5108777,23.2950439 L12.4918791,23.2987469 L12.4918791,23.2987469 L12.4767152,23.2950439 L12.4056548,23.2595131 C12.3958229,23.2563662 12.3870493,23.2590235 12.3821421,23.2649074 L12.3780323,23.275831 L12.360941,23.7031097 L12.3658947,23.7234994 L12.3769048,23.7357139 L12.4804777,23.8096931 L12.4953491,23.8136134 L12.4953491,23.8136134 L12.5071152,23.8096931 L12.6106902,23.7357139 L12.6232938,23.7196733 L12.6232938,23.7196733 L12.6266527,23.7031097 L12.609561,23.275831 C12.6075724,23.2657013 12.6010112,23.2592993 12.5934901,23.257841 L12.5934901,23.257841 Z M12.8583906,23.1452862 L12.8445485,23.1473072 L12.6598443,23.2396597 L12.6498822,23.2499052 L12.6498822,23.2499052 L12.6471943,23.2611114 L12.6650943,23.6906389 L12.6699349,23.7034178 L12.6699349,23.7034178 L12.678386,23.7104931 L12.8793402,23.8032389 C12.8914285,23.8068999 12.9022333,23.8029875 12.9078286,23.7952264 L12.9118235,23.7811639 L12.8776777,23.1665331 C12.8752882,23.1545897 12.8674102,23.1470016 12.8583906,23.1452862 L12.8583906,23.1452862 Z M12.1430473,23.1473072 C12.1332178,23.1423925 12.1221763,23.1452606 12.1156365,23.1525954 L12.1099173,23.1665331 L12.0757714,23.7811639 C12.0751323,23.7926639 12.0828099,23.8018602 12.0926481,23.8045676 L12.108256,23.8032389 L12.3092106,23.7104931 L12.3186497,23.7024347 L12.3186497,23.7024347 L12.3225043,23.6906389 L12.340401,23.2611114 L12.337245,23.2485176 L12.337245,23.2485176 L12.3277531,23.2396597 L12.1430473,23.1473072 Z" id="MingCute" fill-rule="nonzero"> </path> <path d="M9.79289,12.7929 C10.1834,12.4024 10.8166,12.4024 11.2071,12.7929 C11.5675615,13.1533615 11.5952893,13.7206207 11.2902834,14.1128973 L11.2071,14.2071 L6.41421,19 L9,19 C9.55229,19 10,19.4477 10,20 C10,20.51285 9.61396434,20.9355092 9.1166221,20.9932725 L9,21 L4,21 C3.48716857,21 3.06449347,20.613973 3.0067278,20.1166239 L3,20 L3,15 C3,14.4477 3.44772,14 4,14 C4.51283143,14 4.93550653,14.386027 4.9932722,14.8833761 L5,15 L5,17.5858 L9.79289,12.7929 Z M20,3 C20.51285,3 20.9355092,3.38604429 20.9932725,3.88337975 L21,4 L21,9 C21,9.55228 20.5523,10 20,10 C19.48715,10 19.0644908,9.61395571 19.0067275,9.11662025 L19,9 L19,6.41421 L14.2071,11.2071 C13.8166,11.5976 13.1834,11.5976 12.7929,11.2071 C12.4324385,10.8466385 12.4047107,10.2793793 12.7097166,9.88709487 L12.7929,9.79289 L17.5858,5 L15,5 C14.4477,5 14,4.55229 14,4 C14,3.48716857 14.386027,3.06449347 14.8833761,3.0067278 L15,3 L20,3 Z" id="形状" fill="#ffffff"> </path> </g> </g> </g> </g>
</svg>

<svg xmlns="http://www.w3.org/2000/svg" width="800px" height="800px" fill="#fff" viewBox="0 0 24 24"><g fill="none"><path d="M24 0v24H0V0zM12.593 23.258l-.011.002-.071.035-.02.004-.014-.004-.071-.035q-.016-.005-.024.005l-.004.01-.017.428.005.02.01.013.104.074.015.004.012-.004.104-.074.012-.016.004-.017-.017-.427q-.004-.016-.017-.018m.265-.113-.013.002-.185.093-.01.01-.003.011.018.43.005.012.008.007.201.093q.019.005.029-.008l.004-.014-.034-.614q-.005-.018-.02-.022m-.715.002a.02.02 0 0 0-.027.006l-.006.014-.034.614q.001.018.017.024l.015-.002.201-.093.01-.008.004-.011.017-.43-.003-.012-.01-.01z"/><path fill="#fff" d="M9.793 12.793a1 1 0 0 1 1.497 1.32l-.083.094L6.414 19H9a1 1 0 0 1 .117 1.993L9 21H4a1 1 0 0 1-.993-.883L3 20v-5a1 1 0 0 1 1.993-.117L5 15v2.586zM20 3a1 1 0 0 1 .993.883L21 4v5a1 1 0 0 1-1.993.117L19 9V6.414l-4.793 4.793a1 1 0 0 1-1.497-1.32l.083-.094L17.586 5H15a1 1 0 0 1-.117-1.993L15 3z"/></g></svg>
